public/assets/electric3.svg

<svg width="144" height="96" viewBox="0 0 144 96" fill="none" xmlns="http://www.w3.org/2000/svg">
<path d="M143 85.8882H1.00012V95.2355H143V85.8882Z" fill="url(#paint0_linear_57_131)"/>
<path d="M1.00012 1H143" stroke="#062023" stroke-width="0.5" stroke-miterlimit="10" stroke-linecap="round" stroke-linejoin="round"/>
<path d="M138.856 85.9054V68.7852" stroke="#062023" stroke-width="0.5" stroke-miterlimit="10" stroke-linecap="round" stroke-linejoin="round"/>
<path d="M132.791 85.9054V68.7852" stroke="#062023" stroke-width="0.5" stroke-miterlimit="10" stroke-linecap="round" stroke-linejoin="round"/>
<path d="M126.707 85.9054V68.7852" stroke="#062023" stroke-width="0.5" stroke-miterlimit="10" stroke-linecap="round" stroke-linejoin="round"/>
<path d="M120.642 85.9054V68.7852" stroke="#062023" stroke-width="0.5" stroke-miterlimit="10" stroke-linecap="round" stroke-linejoin="round"/>
<path d="M114.576 85.9049V68.7847" stroke="#062023" stroke-width="0.5" stroke-miterlimit="10" stroke-linecap="round" stroke-linejoin="round"/>
<path d="M138.856 68.7847H114.576" stroke="#062023" stroke-width="0.5" stroke-miterlimit="10" stroke-linecap="round" stroke-linejoin="round"/>
<path d="M114.576 68.7847L138.856 85.9049" stroke="#062023" stroke-width="0.5" stroke-miterlimit="10" stroke-linecap="round" stroke-linejoin="round"/>
<path d="M52.2944 69.1659L48.8637 70.5747C47.4881 71.1382 46.8252 72.6795 47.3555 74.0716L50.1233 81.3142C50.2227 81.5628 50.4547 81.7285 50.7365 81.7285H89.6009C89.866 81.7285 90.1146 81.5628 90.2141 81.3142L93.0647 73.8728C93.5619 72.58 92.9984 71.105 91.772 70.4752L88.5733 68.8345" stroke="#062023" stroke-width="0.5" stroke-miterlimit="10" stroke-linecap="round" stroke-linejoin="round"/>
<path d="M69.4475 74.9501H53.0731C52.725 74.9501 52.4598 74.6684 52.4598 74.3369V67.2104C52.4598 66.8623 52.7416 66.5972 53.0731 66.5972H69.4475C69.7955 66.5972 70.0607 66.8789 70.0607 67.2104V74.3203C70.0607 74.6684 69.7789 74.9501 69.4475 74.9501Z" stroke="#062023" stroke-width="0.5" stroke-miterlimit="10" stroke-linecap="round" stroke-linejoin="round"/>
<path d="M69.5477 79.4582H51.1513C50.8033 79.4582 50.5381 79.1764 50.5381 78.845V76.7402C50.5381 76.3921 50.8198 76.127 51.1513 76.127H69.5477C69.8957 76.127 70.1609 76.4087 70.1609 76.7402V78.845C70.1774 79.1764 69.8957 79.4582 69.5477 79.4582Z" stroke="#062023" stroke-width="0.5" stroke-miterlimit="10" stroke-linecap="round" stroke-linejoin="round"/>
<path d="M89.7006 79.4582H71.3043C70.9562 79.4582 70.691 79.1764 70.691 78.845V76.7402C70.691 76.3921 70.9728 76.127 71.3043 76.127H89.7006C90.0486 76.127 90.3138 76.4087 90.3138 76.7402V78.845C90.3304 79.1764 90.0486 79.4582 89.7006 79.4582Z" stroke="#062023" stroke-width="0.5" stroke-miterlimit="10" stroke-linecap="round" stroke-linejoin="round"/>
<path d="M87.6787 74.9501H71.3043C70.9562 74.9501 70.691 74.6684 70.691 74.3369V67.2104C70.691 66.8623 70.9728 66.5972 71.3043 66.5972H87.6787C88.0267 66.5972 88.2919 66.8789 88.2919 67.2104V74.3203C88.2919 74.6684 88.0267 74.9501 87.6787 74.9501Z" stroke="#062023" stroke-width="0.5" stroke-miterlimit="10" stroke-linecap="round" stroke-linejoin="round"/>
<path d="M51.0514 81.7285L50.8028 85.7558C50.8028 85.8553 50.9354 85.8884 50.9851 85.789L52.7419 81.7285" stroke="#062023" stroke-width="0.5" stroke-miterlimit="10" stroke-linecap="round" stroke-linejoin="round"/>
<path d="M89.3031 81.7285L89.5517 85.7558C89.5517 85.8553 89.4191 85.8884 89.3694 85.789L87.6126 81.7285" stroke="#062023" stroke-width="0.5" stroke-miterlimit="10" stroke-linecap="round" stroke-linejoin="round"/>
<path d="M22.9921 85.9215H19.0808C18.0698 85.9215 17.1915 85.2917 17.0257 84.4299L16.0313 79.5242C15.8159 78.4304 16.7937 77.4194 18.0864 77.4194H23.9865C25.2792 77.4194 26.2736 78.4304 26.0416 79.5242L25.0472 84.4299C24.8815 85.2917 24.0196 85.9215 22.9921 85.9215Z" stroke="#062023" stroke-width="0.5" stroke-miterlimit="10" stroke-linecap="round" stroke-linejoin="round"/>
<path d="M22.1642 77.4194C22.1642 77.4194 22.1145 76.077 23.1255 74.9831C24.1364 73.8893 26.7219 70.1603 27.9483 69.8454C29.1747 69.5305 31.8596 69.6134 31.8596 69.6134C31.8596 69.6134 28.9924 69.7957 28.2632 70.8895C27.534 71.9834 26.639 74.6682 24.4513 75.3974C23.6227 75.6626 23.1752 77.4194 23.1752 77.4194" stroke="#062023" stroke-width="0.5" stroke-miterlimit="10" stroke-linecap="round" stroke-linejoin="round"/>
<path d="M21.3353 77.2371C21.3353 77.2371 21.6833 70.7901 25.1471 68.3041C26.7382 67.1606 27.2354 65.6524 28.6938 65.3872C27.9149 66.249 28.9093 68.2875 26.8873 69.1991C26.8873 69.1991 25.3626 69.5968 24.6665 71.8508C24.2356 73.2429 23.1252 74.9831 23.1252 74.9831" stroke="#062023" stroke-width="0.5" stroke-miterlimit="10" stroke-linecap="round" stroke-linejoin="round"/>
<path d="M21.749 74.5024C21.749 74.5024 21.401 68.7515 20.0088 67.9891C18.6332 67.2268 16.5947 66.3318 15.302 67.0776C14.2413 67.6742 13.7607 68.9504 12.7828 69.1824C14.0921 69.1327 15.7992 66.5307 17.3571 67.4588C18.0531 67.8731 20.506 68.9172 21.0363 77.2536" stroke="#062023" stroke-width="0.5" stroke-miterlimit="10" stroke-linecap="round" stroke-linejoin="round"/>
<path d="M19.3134 77.2368C19.3134 77.2368 17.7224 73.0437 16.5291 72.1653C15.8496 71.6681 12.8996 70.4086 10.9108 70.508C11.5406 71.0715 12.7007 72.2979 13.6619 72.4637C15.8993 72.8448 18.1367 75.4137 18.8494 77.2368" stroke="#062023" stroke-width="0.5" stroke-miterlimit="10" stroke-linecap="round" stroke-linejoin="round"/>
<path d="M20.6225 77.2367C20.6225 77.2367 19.4789 71.7343 18.3353 70.7565C17.1918 69.7953 16.4294 69.1986 15.3521 68.1214C14.2749 67.0441 11.7889 65.9834 11.0431 65.9834C12.4518 65.9834 13.0319 66.9447 13.181 67.3258C13.8937 69.2649 16.5786 70.2096 17.0261 71.6017C17.7221 73.7231 19.5452 75.3639 19.4789 77.2201" stroke="#062023" stroke-width="0.5" stroke-miterlimit="10" stroke-linecap="round" stroke-linejoin="round"/>
<path d="M21.2691 70.8731C21.2691 70.8731 21.6006 68.1717 22.7276 67.0447C23.0093 66.7629 23.2745 65.9177 23.2745 65.4702C23.2413 66.4812 24.1197 68.4037 23.7385 69.7296" stroke="#062023" stroke-width="0.5" stroke-miterlimit="10" stroke-linecap="round" stroke-linejoin="round"/>
<path d="M71.999 1.0166V28.7437" stroke="#062023" stroke-width="0.5" stroke-miterlimit="10" stroke-linecap="round" stroke-linejoin="round"/>
<path d="M74.7673 32.887C75.4965 34.7598 74.2867 36.9143 72.2813 37.0966C72.1819 37.1132 72.0824 37.1132 71.9996 37.1132C71.9167 37.1132 71.8007 37.1132 71.7178 37.0966C69.729 36.9143 68.5192 34.7763 69.2152 32.9036L69.961 30.9479C70.0936 30.5999 70.1599 30.2187 70.1599 29.8375V29.3569C70.1599 29.0254 70.4251 28.7437 70.7731 28.7437H73.2094C73.5409 28.7437 73.8226 29.0088 73.8226 29.3569V29.8209C73.8226 30.2021 73.8889 30.5833 74.0381 30.9479L74.7673 32.887Z" stroke="#062023" stroke-width="0.5" stroke-miterlimit="10" stroke-linecap="round" stroke-linejoin="round"/>
<defs>
<linearGradient id="paint0_linear_57_131" x1="1.00118" y1="90.5658" x2="142.998" y2="90.5658" gradientUnits="userSpaceOnUse">
<stop offset="0.00249518" stop-color="#28C985"/>
<stop offset="1" stop-color="#18808A"/>
</linearGradient>
</defs>
</svg>

<svg width="144" height="96" fill="none" xmlns="http://www.w3.org/2000/svg"><path d="M143 85.888H1v9.347h142v-9.347z" fill="url(#a)"/><path d="M1 1h142M138.856 85.905v-17.12M132.791 85.905v-17.12M126.707 85.905v-17.12M120.642 85.905v-17.12M114.576 85.905v-17.12M138.856 68.785h-24.28M114.576 68.785l24.28 17.12M52.294 69.166l-3.43 1.409a2.716 2.716 0 0 0-1.508 3.497l2.767 7.242a.65.65 0 0 0 .614.415H89.6a.667.667 0 0 0 .613-.415l2.85-7.441a2.732 2.732 0 0 0-1.292-3.398l-3.199-1.64" stroke="#062023" stroke-width=".5" stroke-miterlimit="10" stroke-linecap="round" stroke-linejoin="round"/><path d="M69.448 74.95H53.073a.612.612 0 0 1-.613-.613V67.21c0-.348.282-.613.613-.613h16.375c.348 0 .613.282.613.613v7.11c0 .348-.282.63-.614.63zM69.548 79.458H51.15a.612.612 0 0 1-.613-.613V76.74c0-.348.282-.613.613-.613h18.397c.348 0 .613.282.613.613v2.105c.016.331-.265.613-.613.613zM89.7 79.458H71.305a.612.612 0 0 1-.613-.613V76.74c0-.348.282-.613.613-.613h18.397c.348 0 .613.282.613.613v2.105c.016.331-.265.613-.613.613zM87.679 74.95H71.304a.612.612 0 0 1-.613-.613V67.21c0-.348.282-.613.613-.613H87.68c.348 0 .613.282.613.613v7.11c0 .348-.265.63-.613.63zM51.051 81.728l-.248 4.028c0 .1.132.132.182.033l1.757-4.06M89.303 81.728l.249 4.028c0 .1-.133.132-.183.033l-1.756-4.06M22.992 85.921h-3.911c-1.011 0-1.89-.63-2.055-1.491l-.995-4.906c-.215-1.094.763-2.105 2.055-2.105h5.9c1.293 0 2.288 1.011 2.056 2.105l-.995 4.906c-.166.862-1.027 1.491-2.055 1.491z" stroke="#062023" stroke-width=".5" stroke-miterlimit="10" stroke-linecap="round" stroke-linejoin="round"/><path d="M22.164 77.42s-.05-1.343.961-2.437c1.011-1.094 3.597-4.823 4.823-5.138 1.227-.314 3.912-.232 3.912-.232s-2.868.183-3.597 1.276c-.729 1.094-1.624 3.78-3.812 4.508-.828.266-1.276 2.022-1.276 2.022" stroke="#062023" stroke-width=".5" stroke-miterlimit="10" stroke-linecap="round" stroke-linejoin="round"/><path d="M21.335 77.237s.348-6.447 3.812-8.933c1.591-1.143 2.088-2.652 3.547-2.917-.78.862.215 2.9-1.807 3.812 0 0-1.524.398-2.22 2.652-.431 1.392-1.542 3.132-1.542 3.132" stroke="#062023" stroke-width=".5" stroke-miterlimit="10" stroke-linecap="round" stroke-linejoin="round"/><path d="M21.749 74.502s-.348-5.75-1.74-6.513c-1.376-.762-3.414-1.657-4.707-.911-1.06.596-1.541 1.872-2.52 2.104 1.31-.05 3.017-2.651 4.575-1.723.696.414 3.149 1.458 3.68 9.795" stroke="#062023" stroke-width=".5" stroke-miterlimit="10" stroke-linecap="round" stroke-linejoin="round"/><path d="M19.313 77.237s-1.59-4.193-2.784-5.072c-.68-.497-3.63-1.756-5.618-1.657.63.564 1.79 1.79 2.75 1.956 2.238.38 4.476 2.95 5.188 4.773" stroke="#062023" stroke-width=".5" stroke-miterlimit="10" stroke-linecap="round" stroke-linejoin="round"/><path d="M20.622 77.237s-1.143-5.503-2.287-6.48c-1.143-.962-1.906-1.558-2.983-2.636-1.077-1.077-3.563-2.138-4.309-2.138 1.409 0 1.989.962 2.138 1.343.713 1.939 3.398 2.884 3.845 4.276.696 2.121 2.52 3.762 2.453 5.618M21.27 70.873s.33-2.701 1.458-3.828c.281-.282.546-1.127.546-1.575-.033 1.011.846 2.934.464 4.26M71.999 1.017v27.727M74.767 32.887c.73 1.873-.48 4.027-2.486 4.21-.1.016-.199.016-.281.016-.083 0-.2 0-.282-.016-1.989-.183-3.199-2.32-2.503-4.193l.746-1.956c.133-.348.199-.73.199-1.11v-.481c0-.332.265-.613.613-.613h2.436c.332 0 .614.265.614.613v.464c0 .381.066.762.215 1.127l.73 1.939z" stroke="#062023" stroke-width=".5" stroke-miterlimit="10" stroke-linecap="round" stroke-linejoin="round"/><defs><linearGradient id="a" x1="1.001" y1="90.566" x2="142.998" y2="90.566" gradientUnits="userSpaceOnUse"><stop offset=".002" stop-color="#28C985"/><stop offset="1" stop-color="#18808A"/></linearGradient></defs></svg>
